assets/imgs/edit_icon/bold.svg

<svg viewBox="0 0 103.81 125.63" xmlns="http://www.w3.org/2000/svg"><path d="m14.48 98v-71.11q0-10.33-1.13-14.67c-.37-1-2.23-2.13-5.55-3.38s-5.67-1.84-7.05-1.84q-.75 0-.75-3.43c0-2 .19-3.19.56-3.57q15 .95 27.65.94 6.21 0 28.4-.38a58 58 0 0 1 14.1 1.79 55.47 55.47 0 0 1 13.83 5.55 29.63 29.63 0 0 1 10.81 10.53 29.32 29.32 0 0 1 4.14 15.57q0 9.78-5.65 16.17t-10 8.09c-1 .38-1.32.75-.94 1.13q6.57 1.13 13.73 9.31t7.14 21q0 16.17-13.16 25.86t-34.61 9.32l-27.6-.38q-5.64 0-12.51.28c-4.58.19-8.24.34-11 .47l-3.95.38c-.5-.51-.75-1.57-.75-3.2 0-2.51.25-3.76.75-3.76a29.86 29.86 0 0 0 7.06-1.32q4.8-1.3 5.36-2.82 1.12-4.32 1.12-16.53zm46.83-44.59a23.07 23.07 0 0 0 4.32-2.82c1-.88 2.1-2.73 3.3-5.55a28 28 0 0 0 1.78-10.81q0-23.32-17.3-23.32c-5.52 0-9.15.25-10.91.75a2 2 0 0 0 -1.69 2.26v38.55q0 2.64 9.78 2.63 7.34 0 10.72-1.69zm14.29 38.37q0-26.15-23.13-26.15a37.52 37.52 0 0 0 -9.59 1c-1.38.5-2.07 1.06-2.07 1.69v42.31a3 3 0 0 0 1.32 2.63q1.88 1.32 14.1 1.32 19.37-.05 19.37-22.8z" fill="#525566"/></svg>

<svg xmlns="http://www.w3.org/2000/svg" viewBox="0 0 103.81 125.63"><defs><style>.cls-1{fill:#525566;}</style></defs><title>bold</title><g id="レイヤー_2" data-name="レイヤー 2"><g id="レイヤー_3" data-name="レイヤー 3"><path class="cls-1" d="M14.48,98V26.89q0-10.33-1.13-14.67c-.37-1-2.23-2.13-5.55-3.38S2.13,7,.75,7Q0,7,0,3.57C0,1.57.19.38.56,0q15,.95,27.65.94,6.21,0,28.4-.38a58,58,0,0,1,14.1,1.79A55.47,55.47,0,0,1,84.54,7.9,29.63,29.63,0,0,1,95.35,18.43,29.32,29.32,0,0,1,99.49,34q0,9.78-5.65,16.17t-10,8.09c-1,.38-1.32.75-.94,1.13q6.57,1.13,13.73,9.31t7.14,21q0,16.17-13.16,25.86T56,124.88L28.4,124.5q-5.64,0-12.51.28c-4.58.19-8.24.34-11,.47l-3.95.38c-.5-.51-.75-1.57-.75-3.2,0-2.51.25-3.76.75-3.76A29.86,29.86,0,0,0,8,117.35q4.8-1.3,5.36-2.82Q14.48,110.21,14.48,98ZM61.31,53.41a23.07,23.07,0,0,0,4.32-2.82c1-.88,2.1-2.73,3.3-5.55a28,28,0,0,0,1.78-10.81q0-23.32-17.3-23.32c-5.52,0-9.15.25-10.91.75a2,2,0,0,0-1.69,2.26V52.47q0,2.64,9.78,2.63Q57.93,55.1,61.31,53.41ZM75.6,91.78q0-26.15-23.13-26.15a37.52,37.52,0,0,0-9.59,1c-1.38.5-2.07,1.06-2.07,1.69v42.31a3,3,0,0,0,1.32,2.63q1.88,1.32,14.1,1.32Q75.6,114.53,75.6,91.78Z"/></g></g></svg>
